src/actions/22/vcs-merge.svg

<svg viewBox="0 0 22 22" xmlns="http://www.w3.org/2000/svg">
    <style type="text/css" id="current-color-scheme">
        .ColorScheme-Text {
            color:#363636;
        }
    </style>
    <g class="ColorScheme-Text" fill="currentColor">
        <path d="m5.5 14a2.5 2.5 0 0 0 -2.5 2.5 2.5 2.5 0 0 0 2.5 2.5 2.5 2.5 0 0 0 2.5-2.5 2.5 2.5 0 0 0 -2.5-2.5zm0 1a1.5 1.5 0 0 1 1.5 1.5 1.5 1.5 0 0 1 -1.5 1.5 1.5 1.5 0 0 1 -1.5-1.5 1.5 1.5 0 0 1 1.5-1.5z"/>
        <path d="m15.5 14a2.5 2.5 0 0 0 -2.5 2.5 2.5 2.5 0 0 0 2.5 2.5 2.5 2.5 0 0 0 2.5-2.5 2.5 2.5 0 0 0 -2.5-2.5zm0 1a1.5 1.5 0 0 1 1.5 1.5 1.5 1.5 0 0 1 -1.5 1.5 1.5 1.5 0 0 1 -1.5-1.5 1.5 1.5 0 0 1 1.5-1.5z"/>
        <path d="m10.5 3a2.5 2.5 0 0 0 -2.5 2.5 2.5 2.5 0 0 0 2.5 2.5 2.5 2.5 0 0 0 2.5-2.5 2.5 2.5 0 0 0 -2.5-2.5zm0 1a1.5 1.5 0 0 1 1.5 1.5 1.5 1.5 0 0 1 -1.5 1.5 1.5 1.5 0 0 1 -1.5-1.5 1.5 1.5 0 0 1 1.5-1.5z"/>
        <path d="m10 7v3h-3a2 2 0 0 0 -.0488281 0 2 2 0 0 0 -1.9511719 2v3h1v-3a1 1 0 0 1 1-1h7a1 1 0 0 1 1 1v3h1v-3a2 2 0 0 0 -1.951172-2 2 2 0 0 0 -.048828 0h-3v-3z"/>
    </g>
</svg>

<svg xmlns="http://www.w3.org/2000/svg" viewBox="0 0 22 22">
    <g fill="currentColor" style="color:#050505;opacity:.7">
        <path d="M5.5 14A2.5 2.5 0 0 0 3 16.5 2.5 2.5 0 0 0 5.5 19 2.5 2.5 0 0 0 8 16.5 2.5 2.5 0 0 0 5.5 14zm0 1A1.5 1.5 0 0 1 7 16.5 1.5 1.5 0 0 1 5.5 18 1.5 1.5 0 0 1 4 16.5 1.5 1.5 0 0 1 5.5 15zM15.5 14a2.5 2.5 0 0 0-2.5 2.5 2.5 2.5 0 0 0 2.5 2.5 2.5 2.5 0 0 0 2.5-2.5 2.5 2.5 0 0 0-2.5-2.5zm0 1a1.5 1.5 0 0 1 1.5 1.5 1.5 1.5 0 0 1-1.5 1.5 1.5 1.5 0 0 1-1.5-1.5 1.5 1.5 0 0 1 1.5-1.5zM10.5 3A2.5 2.5 0 0 0 8 5.5 2.5 2.5 0 0 0 10.5 8 2.5 2.5 0 0 0 13 5.5 2.5 2.5 0 0 0 10.5 3zm0 1A1.5 1.5 0 0 1 12 5.5 1.5 1.5 0 0 1 10.5 7 1.5 1.5 0 0 1 9 5.5 1.5 1.5 0 0 1 10.5 4z"/>
        <path d="M10 7v3H7a2 2 0 0 0-.049 0A2 2 0 0 0 5 12v3h1v-3a1 1 0 0 1 1-1h7a1 1 0 0 1 1 1v3h1v-3a2 2 0 0 0-1.951-2A2 2 0 0 0 14 10h-3V7z"/>
    </g>
</svg>
